tools/lut_finder/luts/0_人像，电影感，皮肤质感.cube
TITLE "Generated by Resolve"
LUT_3D_SIZE 17
0 0 0
0 0 0.000366217
0.0614023 0 0.0011902
0.151125 0.00263981 0.00367742
0.246937 0.0112154 0.00776684
0.35378 0.0209964 0.0126192
0.477974 0.0293584 0.0163272
0.612085 0.0359045 0.0183261
0.743877 0.0426795 0.0194858
0.866545 0.0596017 0.039353
0.946227 0.081239 0.0708171
0.962097 0.0895857 0.0816968
0.961303 0.08925 0.0812695
0.961303 0.08925 0.0812695
0.961135 0.08925 0.0812695
0.962173 0.0892348 0.0812695
0.993866 0.0889143 0.0810712
0 0 0
0 0 0
0.0445716 0 0.000549325
0.13521 0 0.00297551
0.230213 0.00555428 0.00672923
0.33698 0.017792 0.0118563
0.459846 0.0275731 0.0160525
0.595026 0.0347753 0.0180209
0.728939 0.0415045 0.0188907
0.855711 0.0577707 0.0372931
0.942397 0.0796216 0.0684825
0.962264 0.0896468 0.0817731
0.961303 0.08925 0.0812695
0.961303 0.08925 0.0812695
0.961135 0.08925 0.0812695
0.962173 0.0892348 0.0812695
0.993866 0.0889143 0.0810712
0 0.0509194 0
0 0.0446784 0
0.02327 0.028397 0
0.11783 0.021973 0
0.214511 0.0278935 0.00514229
0.318517 0.0336461 0.0110933
0.43595 0.0376745 0.0154574
0.569436 0.0378271 0.0176089
0.704707 0.0402533 0.0184939
0.834806 0.0531624 0.0324865
0.931655 0.074052 0.0620279
0.962676 0.0885328 0.0820172
0.961334 0.0883803 0.0813916
0.961318 0.0886854 0.0813611
0.96112 0.0888533 0.0813458
0.962142 0.0889296 0.0813153
0.993835 0.0886244 0.081117
0.0106355 0.130938 0.0189212
0.0055848 0.125856 0.0173953
0.0169223 0.108568 0.0161288
0.0893416 0.0895705 0.00738537
0.191287 0.0818189 0.00471504
0.300237 0.0831159 0.00984207
0.4168 0.0868391 0.0148318
0.54699 0.0877852 0.0168307
0.680232 0.0867475 0.0180056
0.81033 0.0901503 0.0254063
0.917159 0.102617 0.0505226
0.963958 0.110918 0.0784619
0.961776 0.101289 0.078996
0.961715 0.0970779 0.0796521
0.961364 0.0933089 0.0802319
0.962325 0.0918135 0.0804303
0.994156 0.0914168 0.0802472
0.0421607 0.207187 0.049546
0.0395056 0.203372 0.0478828
0.0412604 0.192981 0.0452888
0.0795605 0.169451 0.0393072
0.162203 0.153643 0.0190127
0.272801 0.150378 0.0118563
0.396292 0.152026 0.0139162
0.527092 0.15436 0.0161898
0.658061 0.154803 0.0180056
0.78616 0.156985 0.0226749
0.901518 0.168505 0.0435187
0.965576 0.176867 0.0712596
0.963867 0.164492 0.0724498
0.963546 0.157519 0.0730297
0.963302 0.151797 0.0735332
0.964141 0.148928 0.0737774
0.996002 0.147585 0.0736095
0.0772412 0.28423 0.0846418
0.0756542 0.280797 0.0830396
0.0734417 0.273793 0.0799573
0.0939803 0.258488 0.0767071
0.140154 0.231525 0.0608835
0.240055 0.221592 0.0294652
0.363912 0.225467 0.0168612
0.496757 0.228382 0.0169223
0.631647 0.227375 0.0182803
0.762249 0.228199 0.0215763
0.88365 0.237491 0.0368505
0.961486 0.245945 0.0598459
0.967712 0.23714 0.0652476
0.966751 0.230045 0.0659037
0.966415 0.224735 0.0664378
0.967208 0.221881 0.0667124
0.998947 0.219715 0.0665751
0.110369 0.363607 0.121645
0.108995 0.36025 0.120058
0.10602 0.354177 0.117144
0.116213 0.344625 0.114137
0.143816 0.32488 0.108492
0.205066 0.296498 0.081651
0.323873 0.295491 0.0388342
0.461204 0.30544 0.0200961
0.597131 0.307301 0.0208591
0.73225 0.304234 0.0225376
0.859815 0.306462 0.030869
0.950439 0.311772 0.0468757
0.972808 0.306294 0.0562142
0.971435 0.298878 0.0568704
0.970993 0.294041 0.0574197
0.971756 0.291417 0.0577249
1 0.288701 0.0576181
0.143374 0.444465 0.159274
0.142016 0.441184 0.157733
0.139559 0.435782 0.155261
0.140383 0.427817 0.151934
0.162585 0.416541 0.149386
0.197528 0.39202 0.140505
0.278248 0.365637 0.0986191
0.415213 0.37409 0.0430915
0.562844 0.3906 0.0211185
0.698436 0.389532 0.02533
0.829587 0.38468 0.0291447
0.93286 0.382315 0.0384985
0.974746 0.37734 0.0490425
0.974838 0.369253 0.0499275
0.974365 0.36434 0.0502937
0.975204 0.361685 0.0505074
1 0.358495 0.0504158
0.177401 0.525475 0.197391
0.176059 0.522362 0.195941
0.174014 0.517617 0.193774
0.17052 0.51046 0.190356
0.185931 0.500893 0.187533
0.21323 0.488884 0.185657
0.257542 0.459739 0.170382
0.359487 0.437446 0.110735
0.513527 0.456825 0.0356909
0.66688 0.479942 0.0116274
0.798459 0.472862 0.0281224
0.911101 0.46247 0.0342718
0.972961 0.453605 0.0420081
0.977447 0.444678 0.0437629
0.976593 0.439506 0.044358
0.977569 0.436683 0.0446784
1 0.433051 0.0446174
0.213138 0.604654 0.236759
0.21178 0.601724 0.235294
0.209842 0.597574 0.233188
0.206363 0.591134 0.229877
0.212406 0.582712 0.22678
0.235706 0.573053 0.224613
0.26804 0.560327 0.223453
0.324941 0.526329 0.199145
0.4486 0.510597 0.112886
0.616556 0.542382 0.0253758
0.768475 0.569116 0.00920119
0.889494 0.553323 0.0267033
0.970245 0.537362 0.0312047
0.982757 0.52636 0.0328527
0.981323 0.520592 0.0337377
0.982315 0.517571 0.0341802
1 0.513939 0.034165
0.236149 0.68603 0.261662
0.235706 0.682918 0.261143
0.234989 0.678813 0.26038
0.233661 0.672572 0.259159
0.234333 0.664469 0.257877
0.257328 0.654887 0.258564
0.288792 0.645136 0.258213
0.329641 0.632532 0.257679
0.405936 0.595956 0.2206
0.545708 0.594278 0.115938
0.718563 0.641794 0.0182498
0.864164 0.652934 0.00337224
0.962554 0.631067 0.0124971
0.990448 0.615518 0.0197299
0.988586 0.608988 0.0205692
0.989593 0.605859 0.0209201
1 0.602731 0.0209506
0.224247 0.775265 0.248432
0.225528 0.771771 0.249805
0.2271 0.767315 0.25156
0.229328 0.760861 0.254017
0.231189 0.752194 0.256977
0.254032 0.742321 0.262684
0.295705 0.732754 0.266163
0.343648 0.724361 0.265766
0.403067 0.714855 0.260212
0.498375 0.6916 0.213626
0.645701 0.695918 0.106523
0.815457 0.739879 0.00759899
0.942184 0.73228 0
0.995407 0.711391 0.00637827
0.994583 0.703929 0.0112306
0.995621 0.700786 0.0115511
1 0.698222 0.0116274
0.183337 0.865232 0.203571
0.184909 0.862272 0.205295
0.186908 0.858366 0.207523
0.18967 0.853025 0.210498
0.192889 0.845487 0.214618
0.207523 0.836683 0.221241
0.259724 0.82797 0.228122
0.329183 0.819791 0.231464
0.401801 0.812741 0.230076
0.485451 0.806119 0.221118
0.594919 0.79762 0.181216
0.743206 0.803082 0.0905318
0.902785 0.826505 9.15541e-05
0.991638 0.8112 0
0.998611 0.802029 0.0028687
0.999374 0.798901 0.00360113
1 0.796979 0.00366217
0.147555 0.930159 0.163592
0.148623 0.92842 0.164813
0.14995 0.926177 0.166339
0.151736 0.923125 0.168338
0.154223 0.91841 0.171435
0.156146 0.91252 0.17496
0.204196 0.906279 0.182147
0.283513 0.900557 0.186465
0.371527 0.89572 0.185763
0.464393 0.892287 0.178897
0.567666 0.889448 0.164279
0.692988 0.889036 0.132021
0.840497 0.896819 0.0645304
0.970916 0.905882 0
0.999588 0.897887 0
1 0.895232 0.000228885
1 0.893172 0.000183108
0.148913 0.928588 0.165057
0.148867 0.92871 0.165026
0.148821 0.928786 0.164965
0.14873 0.928893 0.164843
0.148562 0.929107 0.164706
0.146334 0.929412 0.164065
0.17464 0.929473 0.167361
0.243534 0.930175 0.167575
0.333364 0.932113 0.162829
0.430045 0.935363 0.152941
0.53547 0.940276 0.135683
0.654749 0.946502 0.112383
0.792294 0.955428 0.0788891
0.930571 0.969757 0.0320745
0.992721 0.973526 0.0137942
0.992294 0.971603 0.0157473
1 0.967819 0.0157626
0.149096 0.929274 0.165255
0.149096 0.929274 0.165255
0.149065 0.929274 0.165255
0.148882 0.929274 0.165209
0.148409 0.929274 0.165103
0.145968 0.929335 0.164599
0.163043 0.929427 0.16762
0.224582 0.93048 0.168292
0.312581 0.932967 0.163912
0.407614 0.937301 0.154238
0.511772 0.943862 0.137148
0.628717 0.952392 0.112779
0.763027 0.963455 0.0807507
0.903395 0.978653 0.039353
0.991165 0.991897 0.0102083
0.991058 0.991516 0.0132753
1 0.988663 0.0132906
0.151385 0.940414 0.167666
0.151324 0.940414 0.167651
0.150668 0.940414 0.167498
0.147845 0.940414 0.166842
0.14052 0.940414 0.165255
0.122423 0.940398 0.161776
0.118471 0.94052 0.160891
0.179812 0.941527 0.166186
0.274235 0.943908 0.166705
0.37023 0.948089 0.157137
0.478843 0.954467 0.140078
0.603067 0.962982 0.115358
0.744778 0.973999 0.082826
0.891524 0.988983 0.0359808
0.987976 1 0
0.9897 1 0
1 1 0
0 0 0
0 0 0
0.0160678 0 0
0.132296 0 0
0.244968 0 0
0.357015 0 0
0.482979 0 0
0.618433 0 0
0.750942 0 0
0.873884 0 0.00553903
0.953841 0 0.0575723
0.969085 0 0.0699931
0.966018 0 0.0710155
0.96318 0 0.0719463
0.96083 0 0.0723888
0.961028 0 0.0724498
0.992798 0 0.0716564
0 0 0.00708019
0 0 0.00402838
0.0374609 0 0.00137331
0.130312 0 0.0019379
0.228321 0 0.00476081
0.335912 0.00254826 0.00927749
0.458732 0.0119173 0.0130465
0.594064 0.0187228 0.0148165
0.728176 0.0250095 0.0157168
0.855283 0.040238 0.0349889
0.94255 0.060853 0.0674296
0.962737 0.0704509 0.0810407
0.961593 0.0698405 0.0806287
0.96141 0.0695811 0.0806897
0.96112 0.0693675 0.0807202
0.962097 0.069276 0.0807202
0.99379 0.0689708 0.0804761
0 0.0496681 0.00274662
0 0.0431373 0
0.0217136 0.0272374 0
0.116381 0.0208286 0
0.213031 0.0268559 0.00521859
0.317113 0.0326848 0.0110781
0.434394 0.0367895 0.0154574
0.567956 0.0373693 0.0176089
0.703548 0.040116 0.0184787
0.833738 0.0528115 0.0322271
0.930938 0.0737011 0.061677
0.962722 0.0885939 0.0820172
0.961334 0.0884108 0.0813764
0.961334 0.088716 0.0813458
0.96112 0.0888838 0.0813306
0.962142 0.0889601 0.0813153
0.993835 0.0886397 0.081117
0.0101167 0.129488 0.0194705
0.00526436 0.124407 0.0172885
0.0155032 0.107332 0.0159762
0.0880751 0.0883497 0.00727855
0.190082 0.0806897 0.00451667
0.299031 0.0820478 0.00972
0.415396 0.085771 0.0148165
0.545586 0.0868544 0.016846
0.679011 0.085893 0.0180056
0.809201 0.0891737 0.0252232
0.916442 0.101625 0.0503243
0.963989 0.11017 0.078584
0.961746 0.100572 0.0791028
0.961624 0.0963912 0.0797436
0.961318 0.0926223 0.0803235
0.962341 0.0915084 0.0804761
0.994095 0.0911269 0.080293
0.0415808 0.206012 0.0490272
0.0389868 0.202213 0.0474098
0.0404059 0.191974 0.044831
0.0786145 0.168521 0.0389715
0.161105 0.15259 0.0187533
0.271641 0.149325 0.0117494
0.39501 0.150958 0.013901
0.525795 0.153307 0.0161898
0.656809 0.15378 0.0179751
0.784955 0.155871 0.0225681
0.900633 0.167361 0.0433509
0.96527 0.175845 0.0712139
0.963836 0.163531 0.0725414
0.963516 0.156512 0.0731212
0.963272 0.150805 0.07364
0.964157 0.148028 0.0738689
0.995895 0.146715 0.0736858
0.0767987 0.283177 0.0841535
0.0751812 0.279744 0.0825513
0.0729076 0.272816 0.0794842
0.0933089 0.257542 0.0762798
0.139315 0.230594 0.0605173
0.238972 0.220615 0.0293126
0.362753 0.224399 0.0168002
0.495583 0.227283 0.0168765
0.630472 0.226322 0.0182498
0.761074 0.227161 0.0215
0.882643 0.236423 0.0367132
0.960906 0.244953 0.0597391
0.96762 0.236286 0.0653544
0.96672 0.229145 0.0659953
0.966308 0.223819 0.0665446
0.967163 0.220951 0.0668193
0.998856 0.218814 0.0666667
0.109972 0.362585 0.121172
0.108583 0.359197 0.119554
0.105608 0.353185 0.11667
0.115572 0.343618 0.113664
0.143114 0.323919 0.108064
0.204211 0.295598 0.0813611
0.322805 0.294438 0.0386816
0.460014 0.304326 0.0200046
0.595941 0.306218 0.0207828
0.73109 0.303181 0.0224613
0.858778 0.305394 0.0307927
0.949798 0.31078 0.0467842
0.972671 0.30544 0.0563211
0.971328 0.298024 0.0569619
0.970855 0.293172 0.0575113
0.971679 0.290517 0.0578164
1 0.287831 0.0577096
0.142977 0.443473 0.158816
0.141604 0.440146 0.157275
0.139162 0.434836 0.154818
0.139879 0.426856 0.151476
0.161913 0.415579 0.148943
0.196796 0.391135 0.140063
0.277287 0.364706 0.0983597
0.414038 0.373022 0.0430457
0.561639 0.389502 0.0211032
0.697307 0.388449 0.0252689
0.828626 0.383627 0.0290684
0.932235 0.381338 0.038407
0.974578 0.376486 0.0490883
0.974807 0.368368 0.0499886
0.974289 0.363455 0.0503548
0.975143 0.360769 0.0505531
1 0.35758 0.0504616
0.177005 0.524514 0.196979
0.175647 0.52137 0.195499
0.173602 0.516701 0.193317
0.170123 0.509529 0.189914
0.185275 0.499962 0.187076
0.212543 0.487984 0.185199
0.256733 0.458839 0.170001
0.358434 0.4365 0.110597
0.512352 0.455787 0.0357214
0.665751 0.478843 0.0116579
0.797467 0.471778 0.0281071
0.91043 0.461509 0.0342565
0.972732 0.452796 0.0420844
0.977401 0.443748 0.0438697
0.976547 0.438514 0.0444648
0.977539 0.435798 0.04477
1 0.432151 0.0447089
0.212741 0.603754 0.236316
0.211337 0.600824 0.234836
0.209415 0.596658 0.232746
0.205966 0.590265 0.229435
0.211765 0.581842 0.226291
0.235019 0.572183 0.22414
0.267338 0.559426 0.222965
0.324025 0.52549 0.198764
0.447501 0.509667 0.112703
0.615412 0.541268 0.0253605
0.767407 0.568002 0.00926223
0.88864 0.552346 0.0268101
0.969787 0.536477 0.0313573
0.982666 0.525353 0.0330053
0.981277 0.519524 0.033875
0.982208 0.51664 0.0343175
1 0.512978 0.0343328
0.236057 0.685054 0.261509
0.235523 0.681971 0.261006
0.234806 0.677943 0.260227
0.233524 0.671687 0.258991
0.234043 0.6636 0.257649
0.25684 0.653971 0.258305
0.288151 0.644205 0.257984
0.328817 0.631601 0.25745
0.404883 0.594965 0.220447
0.544549 0.593103 0.115938
0.717449 0.640604 0.0183413
0.863157 0.651987 0.00349432
0.961868 0.630091 0.0126192
0.990387 0.614481 0.0198672
0.98854 0.607889 0.020676
0.989456 0.604791 0.0210422
1 0.601663 0.021088
0.224659 0.774136 0.248875
0.225895 0.770642 0.250248
0.227466 0.766339 0.251957
0.229709 0.759838 0.254383
0.231556 0.751247 0.257313
0.253895 0.741299 0.262943
0.295247 0.731655 0.266484
0.342947 0.723247 0.266056
0.402075 0.713771 0.260517
0.4972 0.690379 0.213977
0.644526 0.694667 0.106737
0.81445 0.738888 0.00761425
0.941421 0.731319 0
0.995239 0.710323 0.00643931
0.994522 0.702754 0.0113222
0.995575 0.699611 0.0116579
1 0.697108 0.0117037
0.18381 0.864317 0.204105
0.185443 0.861173 0.20589
0.187442 0.857359 0.208087
0.190158 0.85211 0.211063
0.193393 0.844633 0.215152
0.207538 0.835798 0.221653
0.259434 0.826947 0.228534
0.328695 0.818799 0.231907
0.401068 0.81181 0.230564
0.484474 0.805158 0.221714
0.593774 0.796551 0.181765
0.742107 0.801968 0.0907912
0.901976 0.825513 0.000137331
0.991348 0.810193 0
0.998566 0.8009 0.00292973
0.999344 0.797681 0.00369268
1 0.795697 0.00376898
0.147875 0.929625 0.163958
0.14902 0.927779 0.165255
0.150286 0.925643 0.166705
0.152056 0.922652 0.168719
0.154559 0.917876 0.171832
0.156497 0.91191 0.175326
0.204105 0.905684 0.182528
0.283085 0.899916 0.186908
0.370977 0.895033 0.186252
0.463661 0.891493 0.179507
0.56669 0.888533 0.165011
0.691783 0.888029 0.132677
0.839307 0.895781 0.0649424
0.970382 0.904997 0
0.999649 0.89688 0
1 0.894224 0.000198367
1 0.892058 0.000289921
0.148898 0.928634 0.165057
0.148852 0.928695 0.164996
0.148806 0.928817 0.164935
0.148714 0.928939 0.164828
0.148562 0.929122 0.164691
0.146349 0.929412 0.164065
0.174197 0.929412 0.167407
0.242802 0.930129 0.167681
0.332601 0.931945 0.162997
0.429206 0.934997 0.153185
0.534539 0.939941 0.136049
0.653635 0.946181 0.112825
0.790951 0.954986 0.0793774
0.929686 0.969207 0.0324407
0.992782 0.972763 0.0137026
0.992386 0.970947 0.0157168
1 0.966842 0.0157321
0.149096 0.929274 0.165209
0.149096 0.929274 0.165225
0.149096 0.929274 0.165209
0.14902 0.929274 0.165194
0.148699 0.929274 0.165118
0.14638 0.929274 0.164645
0.163012 0.929412 0.167651
0.224002 0.93051 0.168307
0.311742 0.932967 0.163958
0.406683 0.937179 0.154376
0.510735 0.943709 0.137346
0.627512 0.952377 0.113008
0.761715 0.963455 0.0810864
0.90222 0.978576 0.0397192
0.991058 0.991928 0.0100862
0.991073 0.991562 0.0132448
1 0.988724 0.0132753
0.151369 0.940398 0.166964
0.151354 0.940414 0.167041
0.151186 0.940414 0.166964
0.150103 0.940414 0.166598
0.145022 0.940414 0.165438
0.128588 0.940398 0.162295
0.123171 0.94052 0.161364
0.181415 0.941482 0.166262
0.273976 0.943801 0.166583
0.369467 0.947951 0.157107
0.477791 0.954345 0.140093
0.601831 0.96286 0.115419
0.743496 0.973861 0.0829633
0.890379 0.988907 0.0360418
0.987945 1 0
0.989715 1 0
1 1 0
0 0 0.0945144
0 0 0.0788891
0 0 0.0847181
0.0619059 0 0.0966506
0.16556 0 0.10161
0.311025 0 0.0808118
0.464118 0 0.0561379
0.609873 0 0.0393072
0.746166 0 0.0289006
0.87155 0 0.0402075
0.953384 0 0.0660563
0.969573 0 0.0754864
0.966278 0 0.0746929
0.963241 0 0.0744793
0.960784 0 0.0737011
0.960861 0 0.0730755
0.992752 0 0.0722057
0.00392157 0.0127108 0.0788891
0.00508125 0.00222782 0.0688334
0.0259098 0 0.0719463
0.0632639 0 0.0835126
0.163073 0.00401312 0.0852522
0.302876 0.0081178 0.0666056
0.445472 0.0116579 0.0513466
0.587121 0.0173953 0.0425116
0.72398 0.0241703 0.0341497
0.852811 0.0396582 0.0458228
0.941436 0.0604562 0.0740978
0.962768 0.0699626 0.0852674
0.961624 0.0689403 0.082887
0.96141 0.0684062 0.0816052
0.96112 0.0680247 0.0807202
0.96202 0.0679484 0.080705
0.99379 0.067628 0.0804608
0.00335698 0.0617075 0.068452
0 0.0550851 0.0607156
0.01944 0.0349432 0.0487373
0.0935378 0.0238499 0.0403906
0.19588 0.0265965 0.036408
0.30782 0.0303044 0.0325475
0.428763 0.0339666 0.0294194
0.56405 0.0359808 0.0264591
0.700618 0.0398413 0.0243229
0.831403 0.0524758 0.0360723
0.929641 0.0734722 0.0636912
0.962722 0.0888075 0.0827039
0.961334 0.0885176 0.0815442
0.961334 0.0887922 0.0814069
0.96112 0.0889296 0.0813153
0.962142 0.0889754 0.0813001
0.993835 0.0886549 0.0811017
4.57771e-05 0.125551 0.0578622
0 0.12134 0.0524605
0 0.108019 0.0406195
0.0798047 0.0891585 0.0284733
0.187579 0.0782177 0.0161288
0.296651 0.078294 0.015671
0.412329 0.0823377 0.0187533
0.542916 0.0843061 0.0194553
0.676722 0.0840162 0.019379
0.806928 0.0872663 0.0255131
0.915114 0.0998093 0.0502174
0.964126 0.108904 0.0787823
0.961837 0.0992905 0.0792706
0.961669 0.095201 0.0799115
0.961425 0.0919814 0.080415
0.962325 0.0911727 0.0805371
0.994018 0.0908064 0.080354
0.0332799 0.201938 0.0608835
0.0318761 0.198489 0.0574502
0.0316777 0.189731 0.0517433
0.0750896 0.167514 0.0452125
0.159304 0.150866 0.0231022
0.269627 0.146944 0.0135195
0.392538 0.148531 0.0144961
0.523354 0.151095 0.0165103
0.654551 0.15169 0.0180819
0.782864 0.153674 0.0223697
0.899214 0.165179 0.0430152
0.96492 0.173999 0.0710918
0.963882 0.161883 0.0727092
0.963516 0.154925 0.0732738
0.963211 0.149401 0.0737621
0.964141 0.146761 0.0739757
0.99588 0.14548 0.0738079
0.0735637 0.280735 0.0855573
0.0725109 0.277378 0.0834211
0.0705425 0.270619 0.0798657
0.0915847 0.255756 0.0763561
0.137636 0.228977 0.0609598
0.237064 0.21883 0.0294804
0.360632 0.222492 0.0167086
0.493507 0.225406 0.0167697
0.62855 0.224506 0.0181582
0.759304 0.22533 0.0214084
0.881193 0.234623 0.0365148
0.960159 0.243366 0.0595712
0.96759 0.234943 0.0655222
0.966735 0.227787 0.0661173
0.966308 0.222522 0.0666819
0.967071 0.219715 0.0669566
0.998917 0.217578 0.0667887
0.108858 0.360632 0.1205
0.107515 0.35729 0.118868
0.104707 0.35137 0.115923
0.114397 0.341894 0.112795
0.141848 0.322332 0.107301
0.202747 0.294118 0.0809186
0.32105 0.29279 0.0384985
0.458183 0.302571 0.019913
0.594217 0.304524 0.020676
0.729534 0.301549 0.0223697
0.85742 0.303853 0.0306554
0.948943 0.309438 0.0466773
0.972595 0.304311 0.0564584
0.971344 0.296849 0.0570993
0.970871 0.292058 0.0576486
0.971603 0.289311 0.0579385
1 0.286671 0.0578317
0.14226 0.441688 0.158007
0.140917 0.438483 0.156512
0.138521 0.433249 0.154086
0.139025 0.425315 0.150759
0.160937 0.414176 0.148226
0.195697 0.389822 0.139467
0.275959 0.363363 0.0980087
0.412497 0.371542 0.0429847
0.560037 0.3879 0.0211185
0.695781 0.386923 0.0252079
0.827253 0.382193 0.0289616
0.931334 0.37998 0.0383001
0.974456 0.375326 0.0491493
0.974762 0.367224 0.0500954
0.974227 0.362295 0.0504463
0.975143 0.359472 0.0506447
1 0.356374 0.0505684
0.176379 0.523003 0.196292
0.175021 0.519921 0.194827
0.172992 0.515373 0.192676
0.169528 0.508263 0.189303
0.184421 0.498711 0.186435
0.211597 0.486748 0.184543
0.255726 0.457649 0.169451
0.357168 0.435264 0.110384
0.510872 0.454398 0.0357366
0.664225 0.477409 0.0116884
0.796017 0.470436 0.0280613
0.909422 0.460197 0.0342107
0.972488 0.451545 0.0421912
0.97731 0.442588 0.044007
0.976425 0.437324 0.0446021
0.977417 0.434531 0.0449073
1 0.430991 0.0448463
0.212161 0.602533 0.235691
0.210727 0.599496 0.23418
0.208835 0.595514 0.232136
0.205432 0.589181 0.228855
0.21091 0.580621 0.22565
0.234104 0.571008 0.223499
0.266407 0.558297 0.222354
0.322927 0.524376 0.198276
0.446052 0.508476 0.11252
0.613825 0.53994 0.0253758
0.766003 0.566674 0.00929274
0.88751 0.551064 0.0269322
0.969223 0.535195 0.0315404
0.982559 0.524117 0.0331884
0.981109 0.518288 0.0340734
0.982116 0.515358 0.0345159
1 0.511803 0.0345159
0.235843 0.683879 0.26128
0.235294 0.680674 0.260731
0.234623 0.676661 0.260014
0.233341 0.670481 0.258793
0.233631 0.662348 0.257343
0.256184 0.652766 0.258015
0.287358 0.64303 0.25771
0.32784 0.630472 0.25716
0.403479 0.593759 0.22034
0.542931 0.591669 0.11603
0.716075 0.639017 0.0184329
0.861906 0.650599 0.00360113
0.960983 0.628855 0.0127718
0.990326 0.613123 0.0200198
0.988418 0.606577 0.0208286
0.989441 0.603449 0.0211948
1 0.600336 0.0212406
0.225162 0.772824 0.249409
0.226413 0.769329 0.250782
0.22797 0.76492 0.252506
0.230167 0.758495 0.254932
0.231952 0.749889 0.257755
0.253742 0.740017 0.263279
0.294743 0.730388 0.266865
0.342092 0.721996 0.266377
0.4009 0.712444 0.260868
0.495766 0.688746 0.21442
0.64303 0.692836 0.106996
0.813153 0.737346 0.00762951
0.940551 0.730129 0
0.99527 0.709041 0.00654612
0.994476 0.701396 0.011429
0.995499 0.698283 0.01178
1 0.695705 0.0118563
0.184421 0.863188 0.204776
0.186099 0.859907 0.206592
0.188067 0.856123 0.208774
0.190753 0.850889 0.211734
0.194034 0.843305 0.215824
0.207645 0.834638 0.222171
0.259113 0.825864 0.229084
0.328069 0.81767 0.232486
0.400168 0.810636 0.231189
0.483299 0.803876 0.222446
0.592432 0.795056 0.182391
0.740826 0.800397 0.0910811
0.900923 0.824262 0.000183108
0.991073 0.808972 0
0.998566 0.799496 0.00292973
0.999496 0.796338 0.00378424
1 0.794324 0.00383001
0.148287 0.929091 0.164416
0.149432 0.927123 0.165713
0.150698 0.924849 0.167178
0.152453 0.921904 0.169162
0.155032 0.916991 0.172335
0.156909 0.911116 0.175799
0.203922 0.904921 0.183017
0.282521 0.899138 0.187442
0.37023 0.894163 0.186862
0.462684 0.890455 0.180255
0.56553 0.887327 0.165896
0.690394 0.886763 0.133516
0.837888 0.89456 0.0654307
0.969757 0.903944 0
0.999786 0.895598 0
1 0.892989 0.000274662
1 0.890898 0.000274662
0.148882 0.928679 0.165026
0.148852 0.928695 0.164981
0.148775 0.928847 0.164904
0.148684 0.929 0.164797
0.148531 0.929152 0.16466
0.146365 0.929381 0.16408
0.173632 0.929381 0.167468
0.241886 0.929992 0.167788
0.331609 0.931731 0.16318
0.428122 0.934829 0.153506
0.533349 0.939666 0.136492
0.652277 0.945724 0.113405
0.789517 0.954498 0.0800183
0.928512 0.968597 0.0328985
0.992889 0.971954 0.0135958
0.992554 0.969879 0.0157168
1 0.966033 0.0156863
0.149096 0.929274 0.165057
0.149096 0.929274 0.165072
0.149081 0.929274 0.165087
0.149065 0.929274 0.165057
0.148913 0.929274 0.164981
0.147051 0.929274 0.164523
0.163439 0.929412 0.167575
0.223606 0.930495 0.168154
0.310719 0.932937 0.163775
0.405509 0.937148 0.154253
0.509468 0.943633 0.13727
0.626047 0.952224 0.112947
0.760159 0.963256 0.0808576
0.90074 0.978286 0.0389868
0.991058 0.991928 0.00883497
0.991089 0.991547 0.0120699
1 0.988769 0.0121004
0.151156 0.940414 0.164385
0.151156 0.940444 0.16466
0.15111 0.940398 0.164828
0.150683 0.940398 0.164401
0.148409 0.940398 0.163134
0.138521 0.940429 0.160327
0.13695 0.94052 0.159945
0.189288 0.941436 0.163378
0.275303 0.943847 0.16257
0.369131 0.948028 0.153017
0.476829 0.954284 0.135317
0.600397 0.962737 0.109636
0.741772 0.973709 0.0730449
0.888762 0.98851 0.0166476
0.987655 1 0
0.989776 1 0
1 1 0
0.0348363 0 0.195392
0.032639 0 0.187091
0.0330358 0 0.173251
0.0621195 0 0.188312
0.115618 0 0.206928
0.226078 0 0.221134
0.385306 0 0.214496
0.564294 0 0.187625
0.72694 0 0.161746
0.863066 0 0.159457
0.949798 0 0.168307
0.968032 0 0.161959
0.965194 0 0.150317
0.962402 0 0.143587
0.960037 0 0.136889
0.96025 0 0.133333
0.991928 0 0.131731
0.042771 0.0618753 0.17113
0.0416571 0.0517433 0.164477
0.0438697 0.00762951 0.153719
0.0614786 0 0.169711
0.110414 0.0130465 0.185931
0.214527 0.0380713 0.200229
0.367926 0.0421912 0.193698
0.545419 0.032929 0.166751
0.70724 0.0292058 0.142428
0.845106 0.0434424 0.144121
0.938308 0.0647135 0.158114
0.9617 0.0737011 0.154513
0.960906 0.071519 0.141848
0.960723 0.0709239 0.13547
0.960433 0.0704204 0.129961
0.961395 0.070222 0.12726
