tools/lut_finder/luts/0_人像，电影感，皮肤质感.cube
TITLE "Generated by Resolve"
LUT_3D_SIZE 9
0 0 0
0.0614023 0 0.0011902
0.246937 0.0112154 0.00776684
0.477974 0.0293584 0.0163272
0.743877 0.0426795 0.0194858
0.946227 0.081239 0.0708171
0.961303 0.08925 0.0812695
0.961135 0.08925 0.0812695
0.993866 0.0889143 0.0810712
0 0.0509194 0
0.02327 0.028397 0
0.214511 0.0278935 0.00514229
0.43595 0.0376745 0.0154574
0.704707 0.0402533 0.0184939
0.931655 0.074052 0.0620279
0.961334 0.0883803 0.0813916
0.96112 0.0888533 0.0813458
0.993835 0.0886244 0.081117
0.0421607 0.207187 0.049546
0.0412604 0.192981 0.0452888
0.162203 0.153643 0.0190127
0.396292 0.152026 0.0139162
0.658061 0.154803 0.0180056
0.901518 0.168505 0.0435187
0.963867 0.164492 0.0724498
0.963302 0.151797 0.0735332
0.996002 0.147585 0.0736095
0.110369 0.363607 0.121645
0.10602 0.354177 0.117144
0.143816 0.32488 0.108492
0.323873 0.295491 0.0388342
0.597131 0.307301 0.0208591
0.859815 0.306462 0.030869
0.972808 0.306294 0.0562142
0.970993 0.294041 0.0574197
1 0.288701 0.0576181
0.177401 0.525475 0.197391
0.174014 0.517617 0.193774
0.185931 0.500893 0.187533
0.257542 0.459739 0.170382
0.513527 0.456825 0.0356909
0.798459 0.472862 0.0281224
0.972961 0.453605 0.0420081
0.976593 0.439506 0.044358
1 0.433051 0.0446174
0.236149 0.68603 0.261662
0.234989 0.678813 0.26038
0.234333 0.664469 0.257877
0.288792 0.645136 0.258213
0.405936 0.595956 0.2206
0.718563 0.641794 0.0182498
0.962554 0.631067 0.0124971
0.988586 0.608988 0.0205692
1 0.602731 0.0209506
0.183337 0.865232 0.203571
0.186908 0.858366 0.207523
0.192889 0.845487 0.214618
0.259724 0.82797 0.228122
0.401801 0.812741 0.230076
0.594919 0.79762 0.181216
0.902785 0.826505 9.15541e-05
0.998611 0.802029 0.0028687
1 0.796979 0.00366217
0.148913 0.928588 0.165057
0.148821 0.928786 0.164965
0.148562 0.929107 0.164706
0.17464 0.929473 0.167361
0.333364 0.932113 0.162829
0.53547 0.940276 0.135683
0.792294 0.955428 0.0788891
0.992721 0.973526 0.0137942
1 0.967819 0.0157626
0.151385 0.940414 0.167666
0.150668 0.940414 0.167498
0.14052 0.940414 0.165255
0.118471 0.94052 0.160891
0.274235 0.943908 0.166705
0.478843 0.954467 0.140078
0.744778 0.973999 0.082826
0.987976 1 0
1 1 0
0 0 0.0945144
0 0 0.0847181
0.16556 0 0.10161
0.464118 0 0.0561379
0.746166 0 0.0289006
0.953384 0 0.0660563
0.966278 0 0.0746929
0.960784 0 0.0737011
0.992752 0 0.0722057
0.00335698 0.0617075 0.068452
0.01944 0.0349432 0.0487373
0.19588 0.0265965 0.036408
0.428763 0.0339666 0.0294194
0.700618 0.0398413 0.0243229
0.929641 0.0734722 0.0636912
0.961334 0.0885176 0.0815442
0.96112 0.0889296 0.0813153
0.993835 0.0886549 0.0811017
0.0332799 0.201938 0.0608835
0.0316777 0.189731 0.0517433
0.159304 0.150866 0.0231022
0.392538 0.148531 0.0144961
0.654551 0.15169 0.0180819
0.899214 0.165179 0.0430152
0.963882 0.161883 0.0727092
0.963211 0.149401 0.0737621
0.99588 0.14548 0.0738079
0.108858 0.360632 0.1205
0.104707 0.35137 0.115923
0.141848 0.322332 0.107301
0.32105 0.29279 0.0384985
0.594217 0.304524 0.020676
0.85742 0.303853 0.0306554
0.972595 0.304311 0.0564584
0.970871 0.292058 0.0576486
1 0.286671 0.0578317
0.176379 0.523003 0.196292
0.172992 0.515373 0.192676
0.184421 0.498711 0.186435
0.255726 0.457649 0.169451
0.510872 0.454398 0.0357366
0.796017 0.470436 0.0280613
0.972488 0.451545 0.0421912
0.976425 0.437324 0.0446021
1 0.430991 0.0448463
0.235843 0.683879 0.26128
0.234623 0.676661 0.260014
0.233631 0.662348 0.257343
0.287358 0.64303 0.25771
0.403479 0.593759 0.22034
0.716075 0.639017 0.0184329
0.960983 0.628855 0.0127718
0.988418 0.606577 0.0208286
1 0.600336 0.0212406
0.184421 0.863188 0.204776
0.188067 0.856123 0.208774
0.194034 0.843305 0.215824
0.259113 0.825864 0.229084
0.400168 0.810636 0.231189
0.592432 0.795056 0.182391
0.900923 0.824262 0.000183108
0.998566 0.799496 0.00292973
1 0.794324 0.00383001
0.148882 0.928679 0.165026
0.148775 0.928847 0.164904
0.148531 0.929152 0.16466
0.173632 0.929381 0.167468
0.331609 0.931731 0.16318
0.533349 0.939666 0.136492
0.789517 0.954498 0.0800183
0.992889 0.971954 0.0135958
1 0.966033 0.0156863
0.151156 0.940414 0.164385
0.15111 0.940398 0.164828
0.148409 0.940398 0.163134
0.13695 0.94052 0.159945
0.275303 0.943847 0.16257
0.476829 0.954284 0.135317
0.741772 0.973709 0.0730449
0.987655 1 0
1 1 0
0.0875257 0 0.296208
0.0838788 0 0.259083
0.11014 0 0.284062
0.30988 0 0.340169
0.673182 0 0.332128
0.933059 0 0.311315
0.953887 0 0.280293
0.95053 0 0.261509
0.982818 0 0.253391
0.076112 0.138903 0.241505
0.0784466 0.11078 0.229007
0.107332 0.0528572 0.229557
0.281865 0.0783093 0.279942
0.637049 0.0722972 0.268193
0.912474 0.107225 0.256687
0.954269 0.114473 0.234348
0.955749 0.109545 0.218112
0.988769 0.108003 0.212116
0.056199 0.179339 0.213321
0.0483101 0.173297 0.201801
0.129122 0.162127 0.173404
0.365072 0.151369 0.15552
0.669749 0.151232 0.151385
0.899123 0.158068 0.151537
0.964981 0.161486 0.157946
0.963851 0.149355 0.147066
0.996536 0.146044 0.143969
0.057969 0.332891 0.222248
0.0557717 0.325536 0.21091
0.114611 0.321004 0.16582
0.319646 0.302846 0.121675
0.597559 0.307897 0.084062
0.855467 0.298512 0.0702525
0.973144 0.299504 0.0809644
0.97116 0.287068 0.0741436
1 0.28188 0.073106
0.156176 0.516396 0.218189
0.155261 0.508949 0.211627
0.176501 0.49366 0.197528
0.252415 0.456245 0.181338
0.504997 0.45098 0.0520638
0.79115 0.465766 0.0326238
0.971618 0.447532 0.0435492
0.976287 0.433387 0.045182
1 0.427024 0.0453346
0.234607 0.679194 0.26244
0.233509 0.672206 0.260822
0.232029 0.658167 0.25713
0.284428 0.638849 0.256535
0.398978 0.589624 0.219638
0.711666 0.634058 0.0185092
0.958297 0.624994 0.0132296
0.988128 0.602564 0.0212863
1 0.596231 0.0216983
0.186557 0.859098 0.207095
0.190066 0.852293 0.210971
0.195911 0.839658 0.217838
0.258076 0.82211 0.230838
0.39733 0.806836 0.233127
0.588357 0.790829 0.184237
0.897978 0.820874 0.000274662
0.998581 0.795789 0.0031281
1 0.790784 0.00402838
0.148821 0.928771 0.164965
0.148714 0.928923 0.164843
0.148486 0.929366 0.164599
0.17203 0.929198 0.167575
0.328923 0.931273 0.163622
0.530266 0.938689 0.137591
0.78587 0.953124 0.0814832
0.99295 0.969833 0.0133364
1 0.964126 0.01561
0.14818 0.940261 0.146288
0.149386 0.940322 0.151812
0.149371 0.940414 0.152651
0.151064 0.94052 0.143725
0.281529 0.943679 0.115038
0.47631 0.953948 0
0.739239 0.973236 0
0.988556 1 0
1 1 0
0.169223 0 0.503319
0.181323 0 0.460197
0.127459 0 0.442267
0.239582 0 0.481865
0.49601 0 0.570123
0.87277 0 0.623606
0.914473 0 0.597192
0.912917 0 0.580163
0.944976 0 0.568933
0.162051 0.241886 0.445411
0.160052 0.220401 0.442359
0.138216 0.120119 0.396735
0.211994 0.080827 0.438285
0.466316 0.102708 0.523781
0.851728 0.180987 0.57348
0.920577 0.204227 0.548089
0.923659 0.200504 0.530312
0.956497 0.19881 0.520256
0.145846 0.252064 0.380133
0.143313 0.244984 0.369467
0.166278 0.2206 0.356771
0.257252 0.157534 0.360067
0.588327 0.165591 0.415076
0.861677 0.200122 0.430289
0.946532 0.217868 0.429236
0.945464 0.207523 0.417563
0.977722 0.204395 0.410697
0.132326 0.291722 0.355444
0.127794 0.284855 0.347143
0.113207 0.297383 0.331548
0.263157 0.304341 0.314107
0.604379 0.320439 0.325917
0.869993 0.30576 0.306966
0.982422 0.300374 0.2972
0.979477 0.287922 0.283391
1 0.284596 0.279744
0.112352 0.450797 0.402975
0.109438 0.445441 0.393332
0.105486 0.448447 0.358831
0.21532 0.464027 0.293156
0.493568 0.468544 0.260975
0.794537 0.473411 0.225956
0.976349 0.448905 0.208209
0.981567 0.433173 0.191241
1 0.427771 0.188113
0.165057 0.669566 0.368658
0.166125 0.662638 0.361837
0.168872 0.64921 0.34609
0.272694 0.635828 0.306569
0.38526 0.596735 0.288777
0.700954 0.633616 0.153017
0.954391 0.620981 0.105226
0.987701 0.59791 0.0907149
1 0.591867 0.0883803
0.177676 0.854917 0.269215
0.182055 0.847868 0.268147
0.18941 0.835126 0.266102
0.253315 0.817273 0.26836
0.394125 0.801434 0.26508
0.580819 0.784955 0.212497
0.892897 0.81529 0.0359808
0.998444 0.789731 0.01178
1 0.784695 0.0118105
0.146883 0.929152 0.191043
0.147127 0.929351 0.187076
0.147478 0.929458 0.180667
0.169833 0.928893 0.17702
0.324559 0.930312 0.167056
0.525139 0.937179 0.138933
0.77966 0.950866 0.0838178
0.993255 0.966583 0.0127718
1 0.960983 0.0153964
0.138399 0.939986 0.122103
0.138293 0.940108 0.122026
0.141649 0.940337 0.130632
0.144472 0.940505 0.108782
0.285191 0.943465 0
0.481392 0.953536 0
0.737819 0.972488 0
0.991333 1 0
1 1 0
0.288106 0.301793 0.658808
0.272602 0.239155 0.672724
0.260822 0.00596628 0.626322
0.234546 0 0.632212
0.418708 0 0.678874
0.720531 0 0.803342
0.788815 0 0.815641
0.786801 0 0.80827
0.820035 0 0.80206
0.26627 0.362127 0.620386
0.259144 0.342596 0.625254
0.258656 0.261723 0.587396
0.208286 0.133639 0.591913
0.380896 0.107179 0.637842
0.694255 0.220371 0.763394
0.808042 0.2636 0.785061
0.81532 0.260395 0.776562
0.850248 0.259159 0.77052
0.243992 0.367315 0.570504
0.240513 0.359503 0.562799
0.252811 0.340047 0.557183
0.255802 0.22385 0.537514
0.379919 0.161883 0.575448
0.71809 0.236316 0.687114
0.868971 0.284642 0.721325
0.869108 0.275334 0.71429
0.900847 0.272419 0.705959
0.217365 0.372503 0.51928
0.212894 0.365469 0.512291
0.222416 0.367498 0.496361
0.277134 0.353704 0.507347
0.437461 0.286992 0.510201
0.807721 0.312901 0.561807
0.973816 0.307378 0.541238
0.970062 0.2981 0.531624
1 0.296086 0.526558
0.213199 0.412726 0.490913
0.20914 0.406729 0.484703
0.201068 0.401785 0.473335
0.197726 0.441154 0.480385
0.417716 0.459022 0.463783
0.77792 0.479698 0.481834
0.980056 0.469474 0.470634
0.988083 0.450767 0.452262
1 0.446418 0.448066
0.136477 0.598825 0.560876
0.140215 0.589609 0.554253
0.148257 0.571801 0.54049
0.17499 0.597604 0.486503
0.331151 0.611185 0.432944
0.6813 0.638056 0.417014
0.950011 0.630823 0.387655
0.9879 0.608713 0.367361
1 0.603418 0.363836
0.116838 0.85095 0.450187
0.11928 0.843732 0.446998
0.12343 0.830549 0.440879
0.186557 0.814984 0.422477
0.369863 0.801312 0.407355
0.570993 0.784909 0.39353
0.887373 0.812009 0.294362
0.998505 0.78558 0.253986
1 0.780911 0.250843
0.118639 0.933028 0.354681
0.120363 0.932982 0.347662
0.122927 0.932601 0.337072
0.144183 0.931121 0.322301
0.320531 0.93164 0.318837
0.523857 0.936187 0.2907
0.773693 0.948165 0.224842
0.993622 0.963134 0.143069
1 0.957382 0.141329
0.10457 0.941573 0.298466
0.102403 0.941787 0.289921
0.0987716 0.942031 0.278035
0.108476 0.942367 0.260548
0.278752 0.945022 0.231785
0.481315 0.953811 0.0711833
0.734844 0.971786 0
0.994186 1 0
1 1 0
0.305196 0.511864 0.846128
0.351583 0.494789 0.833417
0.405509 0.457267 0.85214
0.430411 0.19588 0.815076
0.545174 0 0.831434
0.680568 0 0.866453
0.712428 0.0204166 0.879454
0.688975 0.0145418 0.873121
0.719646 0.00743114 0.872633
0.309148 0.526268 0.808103
0.329747 0.51397 0.797589
0.373083 0.471458 0.811948
0.394644 0.346807 0.784253
0.488228 0.204257 0.793667
0.637949 0.237858 0.832959
0.712276 0.291249 0.860212
0.714992 0.292241 0.858488
0.74786 0.292485 0.857893
0.317388 0.522774 0.76405
0.31783 0.513878 0.755199
0.352056 0.50399 0.75613
0.392508 0.430701 0.776623
0.439872 0.254398 0.739223
0.609461 0.256565 0.795117
0.749584 0.329992 0.85507
0.748226 0.320729 0.851438
0.781979 0.318898 0.850492
0.306966 0.517555 0.712718
0.305241 0.50901 0.704341
0.314122 0.508095 0.703944
0.352987 0.502052 0.72781
0.435843 0.370581 0.696361
0.600641 0.323796 0.733761
0.856489 0.410193 0.81326
0.857267 0.395453 0.804746
0.890639 0.391867 0.798459
0.292622 0.509224 0.651011
0.290211 0.502281 0.644343
0.290013 0.494957 0.634195
0.298619 0.518944 0.662013
0.42742 0.510079 0.670466
0.620737 0.447929 0.668513
0.920867 0.517311 0.733852
0.940398 0.497581 0.717113
0.974594 0.4916 0.708492
0.218433 0.584329 0.653147
0.221241 0.57409 0.644022
0.226307 0.553857 0.625803
0.228763 0.560113 0.634272
0.309178 0.602548 0.636118
0.600412 0.622675 0.618677
0.916426 0.659312 0.651392
0.964523 0.650401 0.642847
0.99826 0.646265 0.63859
0.10341 0.838834 0.653239
0.104616 0.830076 0.649195
0.106447 0.813962 0.641993
0.149798 0.795392 0.629892
0.282979 0.794217 0.598993
0.526818 0.790173 0.581842
0.873793 0.807309 0.572564
0.994247 0.790204 0.548806
1 0.785702 0.545571
0.0816205 0.939193 0.561166
0.0819104 0.939162 0.553063
0.0825055 0.938521 0.541482
0.0961776 0.936553 0.524636
0.273732 0.936599 0.512154
0.516457 0.939406 0.516503
0.773602 0.946273 0.49427
0.994492 0.960601 0.447654
1 0.95523 0.444648
0.0373999 0.946899 0.51519
0 0.946807 0.506706
0 0.946761 0.491905
0 0.947265 0.473411
0.197757 0.950454 0.454124
0.468101 0.958511 0.450309
0.73135 0.973297 0.413687
0.99263 1 0.344991
1 1 0.338033
0.302739 0.526375 0.857893
0.348486 0.521965 0.857618
0.434684 0.514458 0.882551
0.507271 0.400946 0.86453
0.636133 0.198718 0.888747
0.764187 0 0.917021
0.909194 0 0.971572
0.900572 0 0.971969
0.939361 0 0.972091
0.301976 0.560754 0.852934
0.320623 0.55729 0.85301
0.414298 0.545464 0.868513
0.502251 0.474632 0.873487
0.609018 0.33283 0.872129
0.755505 0.19736 0.909194
0.906111 0.0869917 0.962203
0.905745 0.0872969 0.962173
0.946258 0.0872969 0.962173
0.313893 0.590829 0.8542
0.313222 0.588647 0.854002
0.380331 0.595819 0.868193
0.4934 0.580377 0.905592
0.60264 0.440146 0.866377
0.730312 0.303502 0.898192
0.899321 0.139452 0.958083
0.888075 0.137163 0.953826
0.926436 0.135088 0.953323
0.317556 0.626413 0.857435
0.317342 0.624384 0.857267
0.349538 0.632441 0.867216
0.455802 0.646311 0.89099
0.585901 0.590951 0.878828
0.729763 0.446799 0.89189
0.83534 0.374456 0.919402
0.820615 0.372869 0.912184
0.8533 0.372656 0.910307
0.311147 0.655177 0.849012
0.311299 0.652842 0.848188
0.319219 0.650126 0.847471
0.396399 0.670253 0.865599
0.529564 0.672236 0.877165
0.671885 0.556497 0.834455
0.841566 0.534386 0.897978
0.856596 0.530266 0.903944
0.889235 0.529992 0.901335
0.266667 0.671641 0.819898
0.270954 0.665125 0.813443
0.278965 0.65185 0.799954
0.317494 0.662211 0.811109
0.435889 0.68954 0.829038
0.635889 0.677836 0.822675
0.848127 0.65745 0.852445
0.892989 0.669123 0.859983
0.923858 0.667506 0.854887
0.101442 0.832273 0.843565
0.102953 0.823545 0.837186
0.105592 0.807935 0.826291
0.15079 0.788128 0.811505
0.303899 0.783307 0.804013
0.515496 0.788968 0.793713
0.831281 0.793454 0.787991
0.965927 0.79501 0.787549
0.998016 0.791592 0.7841
0.0767071 0.944533 0.786969
0.076936 0.944106 0.779843
0.0774243 0.943038 0.769238
0.0862287 0.940429 0.752712
0.254826 0.940078 0.7355
0.470497 0.94493 0.722408
0.77052 0.946807 0.730205
0.990982 0.955245 0.717632
1 0.950317 0.715114
0.00694286 0.952026 0.756878
0 0.951827 0.748806
0 0.951782 0.735592
0 0.95227 0.717037
0.157641 0.956008 0.695964
0.417426 0.965988 0.677852
0.728801 0.978592 0.683314
0.987381 1 0.661982
1 1 0.657206
0.30277 0.526467 0.851759
0.34609 0.522133 0.851438
0.433204 0.514443 0.875563
0.507683 0.404562 0.861204
0.633829 0.198886 0.882307
0.765301 0 0.912001
0.91107 0 0.967239
0.901976 0 0.967544
0.940719 0 0.967636
0.301549 0.559884 0.852918
0.318257 0.556237 0.852872
0.412757 0.544961 0.867597
0.501244 0.477272 0.875425
0.605417 0.33492 0.87042
0.755291 0.197681 0.909239
0.906188 0.0868391 0.962295
0.905623 0.0873732 0.962158
0.946136 0.0873732 0.962158
0.313588 0.589776 0.854109
0.312673 0.587503 0.853925
0.378149 0.594018 0.86743
0.490272 0.578836 0.90515
0.59913 0.438865 0.866407
0.719768 0.30724 0.894789
0.914656 0.119905 0.964797
0.909468 0.114336 0.963027
0.949798 0.111559 0.962982
0.317556 0.625193 0.857282
0.317357 0.623178 0.857099
0.347555 0.630503 0.866545
0.453742 0.645182 0.891356
0.587869 0.595834 0.884596
0.73048 0.465232 0.899001
0.921904 0.298955 0.964157
0.932387 0.275532 0.969238
0.971984 0.272312 0.968124
0.313619 0.660136 0.856641
0.314046 0.658457 0.856764
0.322866 0.659525 0.860822
0.413275 0.685054 0.883558
0.552026 0.693675 0.895064
0.702663 0.618738 0.879286
0.895384 0.496834 0.947494
0.957626 0.44622 0.977829
0.993835 0.442863 0.973693
0.277714 0.695384 0.859113
0.281224 0.693645 0.858701
0.286152 0.689815 0.857328
0.354162 0.708797 0.875853
0.489448 0.73434 0.89247
0.662013 0.72752 0.891157
0.865888 0.661326 0.934249
0.966522 0.623331 0.978454
0.99968 0.620447 0.973526
0.108721 0.822889 0.917113
0.113268 0.815122 0.914687
0.12314 0.802029 0.910307
0.179461 0.787335 0.906813
0.365164 0.789425 0.917937
0.593957 0.796368 0.925658
0.826688 0.791806 0.928557
0.95198 0.784909 0.952895
0.981537 0.782177 0.947601
0.0720226 0.949248 0.94612
0.0723735 0.948348 0.94461
0.0728008 0.947112 0.942184
0.0779583 0.944213 0.937652
0.249226 0.942885 0.933852
0.467201 0.945922 0.934066
0.753948 0.947295 0.933394
0.978393 0.943282 0.930159
1 0.941329 0.928389
0 0.957061 0.940612
0 0.957076 0.938491
0 0.957244 0.934203
0 0.957977 0.927474
0.131151 0.961242 0.918532
0.413184 0.970916 0.909316
0.701106 0.986007 0.905409
0.971481 0.986831 0.895171
1 0.984665 0.890639
0.3028 0.526528 0.848478
0.344579 0.522301 0.847913
0.432059 0.514366 0.871305
0.508202 0.407111 0.858763
0.632273 0.199237 0.877028
0.766094 0 0.906798
0.913008 0 0.961837
0.907149 0 0.963928
0.947219 0 0.964981
0.301305 0.559289 0.852918
0.317037 0.555673 0.85275
0.41181 0.544839 0.867094
0.500771 0.479194 0.876646
0.602884 0.336309 0.8692
0.754345 0.199374 0.90901
0.90631 0.0866255 0.962295
0.905623 0.0873732 0.962158
0.946136 0.0873732 0.962158
0.31339 0.589197 0.854032
0.312444 0.586969 0.853849
0.377157 0.593179 0.867109
0.488609 0.578302 0.905043
0.597147 0.438819 0.866316
0.715312 0.309331 0.893492
0.914626 0.117266 0.96492
0.909178 0.112016 0.963104
0.949371 0.109026 0.962921
0.317586 0.624552 0.857282
0.317357 0.622629 0.857053
0.346777 0.629633 0.866331
0.452399 0.644327 0.891051
0.586221 0.595651 0.885054
0.72813 0.464729 0.898466
0.918868 0.298466 0.962844
0.932113 0.272938 0.969146
0.971649 0.269612 0.968063
0.313771 0.659449 0.856672
0.314214 0.657801 0.856748
0.32253 0.658686 0.860594
0.412161 0.684092 0.883268
0.550561 0.692927 0.89514
0.700725 0.618158 0.878981
0.89131 0.496635 0.945739
0.957397 0.443641 0.97763
0.99353 0.440253 0.973587
0.279393 0.694591 0.858854
0.282918 0.692775 0.858366
0.287541 0.689067 0.857114
0.354192 0.707866 0.875395
0.488548 0.733593 0.89221
0.659815 0.727092 0.890761
0.863539 0.66006 0.933333
0.968414 0.620356 0.980072
1 0.617304 0.975311
0.110658 0.819394 0.916014
0.115297 0.811368 0.913634
0.125978 0.798718 0.909316
0.181308 0.7841 0.905928
0.365591 0.786679 0.91783
0.593759 0.794232 0.927337
0.822583 0.789654 0.931701
0.968917 0.786435 0.97554
0.999939 0.783612 0.971878
0.0720531 0.949035 0.947982
0.0723583 0.948058 0.947646
0.0727855 0.946487 0.947509
0.0770581 0.942824 0.946792
0.246586 0.940169 0.94905
0.468299 0.941314 0.95816
0.762615 0.942123 0.96875
0.968734 0.932845 0.970886
1 0.93019 0.96965
0.0724193 0.948272 0.947692
0.0724193 0.948272 0.947692
0.0724193 0.948272 0.947692
0.0701915 0.948165 0.947662
0.219593 0.950576 0.950347
0.440757 0.95993 0.959899
0.719509 0.974792 0.974899
0.885466 0.895567 0.896666
0.900114 0.877409 0.87895
