tools/lut_finder/luts/0_人像，电影感，皮肤质感.cube
TITLE "Generated by Resolve"
LUT_3D_SIZE 5
0 0 0
0.246937 0.0112154 0.00776684
0.743877 0.0426795 0.0194858
0.961303 0.08925 0.0812695
0.993866 0.0889143 0.0810712
0.0421607 0.207187 0.049546
0.162203 0.153643 0.0190127
0.658061 0.154803 0.0180056
0.963867 0.164492 0.0724498
0.996002 0.147585 0.0736095
0.177401 0.525475 0.197391
0.185931 0.500893 0.187533
0.513527 0.456825 0.0356909
0.972961 0.453605 0.0420081
1 0.433051 0.0446174
0.183337 0.865232 0.203571
0.192889 0.845487 0.214618
0.401801 0.812741 0.230076
0.902785 0.826505 9.15541e-05
1 0.796979 0.00366217
0.151385 0.940414 0.167666
0.14052 0.940414 0.165255
0.274235 0.943908 0.166705
0.744778 0.973999 0.082826
1 1 0
0.0875257 0 0.296208
0.11014 0 0.284062
0.673182 0 0.332128
0.953887 0 0.280293
0.982818 0 0.253391
0.056199 0.179339 0.213321
0.129122 0.162127 0.173404
0.669749 0.151232 0.151385
0.964981 0.161486 0.157946
0.996536 0.146044 0.143969
0.156176 0.516396 0.218189
0.176501 0.49366 0.197528
0.504997 0.45098 0.0520638
0.971618 0.447532 0.0435492
1 0.427024 0.0453346
0.186557 0.859098 0.207095
0.195911 0.839658 0.217838
0.39733 0.806836 0.233127
0.897978 0.820874 0.000274662
1 0.790784 0.00402838
0.14818 0.940261 0.146288
0.149371 0.940414 0.152651
0.281529 0.943679 0.115038
0.739239 0.973236 0
1 1 0
0.288106 0.301793 0.658808
0.260822 0.00596628 0.626322
0.418708 0 0.678874
0.788815 0 0.815641
0.820035 0 0.80206
0.243992 0.367315 0.570504
0.252811 0.340047 0.557183
0.379919 0.161883 0.575448
0.868971 0.284642 0.721325
0.900847 0.272419 0.705959
0.213199 0.412726 0.490913
0.201068 0.401785 0.473335
0.417716 0.459022 0.463783
0.980056 0.469474 0.470634
1 0.446418 0.448066
0.116838 0.85095 0.450187
0.12343 0.830549 0.440879
0.369863 0.801312 0.407355
0.887373 0.812009 0.294362
1 0.780911 0.250843
0.10457 0.941573 0.298466
0.0987716 0.942031 0.278035
0.278752 0.945022 0.231785
0.734844 0.971786 0
1 1 0
0.302739 0.526375 0.857893
0.434684 0.514458 0.882551
0.636133 0.198718 0.888747
0.909194 0 0.971572
0.939361 0 0.972091
0.313893 0.590829 0.8542
0.380331 0.595819 0.868193
0.60264 0.440146 0.866377
0.899321 0.139452 0.958083
0.926436 0.135088 0.953323
0.311147 0.655177 0.849012
0.319219 0.650126 0.847471
0.529564 0.672236 0.877165
0.841566 0.534386 0.897978
0.889235 0.529992 0.901335
0.101442 0.832273 0.843565
0.105592 0.807935 0.826291
0.303899 0.783307 0.804013
0.831281 0.793454 0.787991
0.998016 0.791592 0.7841
0.00694286 0.952026 0.756878
0 0.951782 0.735592
0.157641 0.956008 0.695964
0.728801 0.978592 0.683314
1 1 0.657206
0.3028 0.526528 0.848478
0.432059 0.514366 0.871305
0.632273 0.199237 0.877028
0.913008 0 0.961837
0.947219 0 0.964981
0.31339 0.589197 0.854032
0.377157 0.593179 0.867109
0.597147 0.438819 0.866316
0.914626 0.117266 0.96492
0.949371 0.109026 0.962921
0.313771 0.659449 0.856672
0.32253 0.658686 0.860594
0.550561 0.692927 0.89514
0.89131 0.496635 0.945739
0.99353 0.440253 0.973587
0.110658 0.819394 0.916014
0.125978 0.798718 0.909316
0.365591 0.786679 0.91783
0.822583 0.789654 0.931701
0.999939 0.783612 0.971878
0.0724193 0.948272 0.947692
0.0724193 0.948272 0.947692
0.219593 0.950576 0.950347
0.719509 0.974792 0.974899
0.900114 0.877409 0.87895
